!!!!SEGMENT: pl-kk--kk-i-2--007-001_anonim--missa-regina-caeli-kyrie.krn
!!!cenid: 16xx:1608
!!!COM: Anonim
!!!COM-rismid: pe30004985
!!!CDT:
!!!CNT:
!!!OPR: Missa Regina caeli
!!!OTL: Kyrie
!!!OMV: 001
!!!PDT:
!!!AGN: Sacred; Mass
!!!SMS-siglum: PL-Kk
!!!SMS-shelfmark: Kk.I.2
!!!SMS-shelfwork: 007-001 M
!!!NIFC-rismid: 300258023
!!!URL-scan: http://repozytorium.nifc.pl/skany/pl-kk-nut--i-2
!!!ONB-nifc: Części mszy: Kyrie, Gloria, Credo, Sanctus, Agnus Dei; skany: C: 0020; A: 0120; T: 0224-0225; B: 0322;
!!!key: F:lyd
**kern	**text	**kern	**text	**kern	**text	**kern	**text
*group1	*	*group1	*	*group1	*	*group1	*
*part4	*part4	*part3	*part3	*part2	*part2	*part1	*part1
*staff4	*staff4	*staff3	*staff3	*staff2	*staff2	*staff1	*staff1
*I"BASSVS	*	*I"TENOR	*	*I"ALTVS	*	*I"DISCANTVS	*
*I'[B]	*	*I'[T]	*	*I'[A]	*	*I'[S]	*
*Ibass	*	*Itenor	*	*Ialto	*	*Isoprn	*
*ICvox	*	*ICvox	*	*ICvox	*	*ICvox	*
*clefF4	*	*clefC4	*	*clefC4	*	*clefC3	*
*k[b-]	*	*k[b-]	*	*k[b-]	*	*k[b-]	*
*F:lyd	*	*F:lyd	*	*F:lyd	*	*F:lyd	*
*M2/1	*	*M2/1	*	*M2/1	*	*M2/1	*
*met(C|)	*	*met(C|)	*	*met(C|)	*	*met(C|)	*
=1-	=1-	=1-	=1-	=1-	=1-	=1-	=1-
!LO:TX:t=P:problem=kreska pseudotaktowa	!	!LO:TX:t=P:problem=kreska pseudotaktowa	!	!	!	!	!
*	*	*	*	*lig	*	*	*
1r	.	1r	.	1F	Ki-	2r	.
!	!	!	!	!	!	!LO:TX:t=P:problem=kreska pseudotaktowa	!
.	.	.	.	.	.	2f\	KY-
*lig	*	*	*	*	*	*	*
*col	*	*	*	*	*	*	*
1C	KY-	2r	.	2.G/	.	2f\	-ri-
!	!	!LO:TX:t=P:problem=kreska pseudotaktowa	!	!	!	!	!
.	.	2c\	KY-	.	.	2e\	-e
*	*	*	*	*Xlig	*	*	*
!	!	!	!	!LO:TX:t=P:problem=kreska pseudotaktowa	!	!	!
.	.	.	.	4G/	-ri-	.	.
=2-	=2-	=2-	=2-	=2	=2	=2-	=2-
2.D/	.	2c\	-rie	1F	-e	1.f	e-
!	!	!LO:N:acc=#	!	!	!	!	!
!	!	!LO:TX:t=P:problem=kreska pseudotaktowa	!	!	!	!	!
.	.	2Bn\	e-	.	.	.	.
*Xcol	*	*	*	*	*	*	*
*Xlig	*	*	*	*	*	*	*
!LO:TX:t=P:problem=kreska pseudotaktowa	!	!	!	!	!	!	!
4D/	-ri-	.	.	.	.	.	.
1C	-e	1c	.	2G/	e-	.	.
!	!	!	!	!LO:TX:t=P:problem=kreska pseudotaktowa	!	!LO:TX:t=P:problem=kreska pseudotaktowa	!
.	.	.	.	2A/	.	2e\	.
=3-	=3-	=3-	=3-	=3-	=3-	=3	=3
2D/	e-	2F/	.	2B-\	.	1d	-leӱ-
!	!	!LO:TX:t=P:problem=kreska pseudotaktowa	!	!	!	!	!
2E\	.	2c\	-lei-	4A\	.	.	.
!	!	!	!	!LO:TX:t=P:problem=kreska pseudotaktowa	!	!	!
.	.	.	.	4G\	.	.	.
2F\	.	1c	.	4A\	.	1.c	-ſon
.	.	.	.	4B-\	.	.	.
4E\	.	.	.	2.c\	.	.	.
!LO:TX:t=P:problem=kreska pseudotaktowa	!	!	!	!	!	!	!
4D/	.	.	.	.	.	.	.
=4	=4	=4-	=4-	=4-	=4-	=4-	=4-
!	!	!LO:TX:t=P:problem=kreska pseudotaktowa	!	!	!	!	!
2E\	-lei-	1c	-ſon	.	.	.	.
.	.	.	.	4B-\	.	.	.
!	!	!	!	!LO:TX:t=P:problem=kreska pseudotaktowa	!	!	!
2F\	-ſon	.	.	2A/	-lei-	1f	e-
*lig	*	*	*	*	*	*	*
1C	kӱ-	1r	.	2G/	-ſon	.	.
!	!	!	!	!	!	!LO:TX:t=P:problem=kreska pseudotaktowa	!
.	.	.	.	2c\	Ki-	2e\	-lei-
=5-	=5-	=5-	=5-	=5-	=5-	=5	=5
*	*	*lig	*	*	*	*	*
*	*	*col	*	*	*	*	*
2.D/	.	1F	ky-	2c\	-ri-	2f\	-ſon
!	!	!	!	!LO:TX:t=P:problem=kreska pseudotaktowa	!	!	!
.	.	.	.	2B-\	-e	2f\	kӱ-
*Xlig	*	*	*	*	*	*	*
!LO:TX:t=P:problem=kreska pseudotaktowa	!	!	!	!	!	!	!
4D/	-ri-	.	.	.	.	.	.
1C	-e	2.G/	.	2c\	e-	2f\	-ri-
!	!	!	!	!LO:SIC:v:t=custos G	!	!	!
!	!	!	!	!LO:LB:g=original	!	!	!
!	!	!	!	!	!	!LO:TX:t=P:problem=kreska pseudotaktowa	!
.	.	.	.	2G/	.	2e\	-e
!	!	!	!	!LO:TX:t=P:problem=kreska pseudotaktowa	!	!	!
*	*	*Xcol	*	*	*	*	*
*	*	*Xlig	*	*	*	*	*
.	.	4G/	-ri-	.	.	.	.
=6-	=6-	=6-	=6-	=6-	=6-	=6	=6
2D/	e-	2F/	-e	1B-X	.	2.f\	e
!	!	!LO:TX:t=P:problem=kreska pseudotaktowa	!	!	!	!	!
2E\	.	2G/	[e]-	.	.	.	.
.	.	.	.	.	.	8e\L	.
.	.	.	.	.	.	8d\J	.
2F\	.	2A/	.	2A/	.	2c/	.
4E\	.	1B-y\	.	4G/	.	1d\	.
!LO:TX:t=P:problem=kreska pseudotaktowa	!	!	!	!LO:TX:t=P:problem=kreska pseudotaktowa	!	!	!
4D/	.	.	.	4F/	.	.	.
!LO:SIC:v:t=custos E	!	!	!	!	!	!	!
!LO:LB:g=original	!	!	!	!	!	!	!
=7	=7	=7-	=7-	=7	=7	=7-	=7-
2E\	.	.	.	2G/	.	.	.
2F\	.	4A\	.	2A/	.	1c	.
!	!	!LO:TX:t=P:problem=kreska pseudotaktowa	!	!	!	!	!
.	.	4G\	.	.	.	.	.
1D	.	2A\	.	1.F	.	.	.
!	!	!	!	!LO:TX:t=P:problem=kreska pseudotaktowa	!	!LO:TX:t=P:problem=kreska pseudotaktowa	!
!	!	!LO:TX:t=P:problem=kreska pseudotaktowa	!	!	!LO:N:acc=#	!	!
.	.	2d\	.	.	.	2Bn/	lei-
!	!	!LO:SIC:v:t=custos G	!	!	!	!LO:SIC:v:t=custos c	!
!	!	!LO:LB:g=original	!	!	!	!LO:LB:g=original	!
=8-	=8-	=8-	=8-	=8	=8	=8	=8
!	!	!	!	!	!	!LO:TX:t=P:problem=kreska pseudotaktowa	!
1C	-ley-	2.G\	.	.	.	1c	-ſon
.	.	.	.	2E/	-lei-	.	.
.	.	4A\	.	.	.	.	.
2BB-/	-ſon	1B-	.	2F/	-ſon	1r	.
!LO:TX:t=P:problem=kreska pseudotaktowa	!	!	!	!LO:TX:t=P:problem=kreska pseudotaktowa	!	!	!
2B-\	kӱ-	.	.	2r	.	.	.
=9	=9	=9-	=9-	=9	=9	=9-	=9-
!	!	!LO:TX:t=P:problem=kreska pseudotaktowa	!	!	!	!	!
*	*	*	*	*lig	*	*lig	*
*	*	*	*	*col	*	*col	*
2B-\	-ri-	1c	.	1F	Ki-	1c	kӱ-
2A\	-e	.	.	.	.	.	.
1.B-	e-	4B-\	.	2.B-\	.	2.d\	.
.	.	4c\	.	.	.	.	.
.	.	4d\	.	.	.	.	.
*	*	*	*	*Xcol	*	*Xcol	*
*	*	*	*	*Xlig	*	*Xlig	*
!	!	!LO:TX:t=P:problem=kreska pseudotaktowa	!	!LO:TX:t=P:problem=kreska pseudotaktowa	!	!LO:TX:t=P:problem=kreska pseudotaktowa	!
.	.	4e\	.	4B-\	-ri-	4d\	-ri-
=10-	=10-	=10	=10	=10	=10	=10	=10
.	.	2f\	.	4F/	-e	2c\	-e
.	.	.	.	4G/	[e]-	.	.
!	!	!LO:TX:t=P:problem=kreska pseudotaktowa	!	!	!	!	!
2A\	.	2F/	.	4A/	.	2f\	e-
.	.	.	.	8G/L	.	.	.
!	!	!	!	!LO:TX:t=P:problem=kreska pseudotaktowa	!	!	!
.	.	.	.	8A/J	.	.	.
1G	.	4G\	.	1B-	.	2d\	.
.	.	4A\	.	.	.	.	.
!	!	!	!	!	!	!LO:TX:t=P:problem=kreska pseudotaktowa	!
.	.	1B-\	.	.	.	2e\	.
=11-	=11-	=11-	=11-	=11-	=11-	=11	=11
1F	-ley-	.	.	2c\	.	2.f\	.
!	!	!LO:TX:t=P:problem=kreska pseudotaktowa	!	!	!	!	!
.	.	2A\	-leӱ-	2F/	-lei-	.	.
.	.	.	.	.	.	4e\	.
!LO:TX:t=P:problem=kreska pseudotaktowa	!	!	!	!	!	!	!
1BB-	-ſon	2B-\	-ſon	1F	-ſon	1d	.
.	.	4F/	e-	.	.	.	.
!	!	!LO:TX:t=P:problem=kreska pseudotaktowa	!	!	!	!	!
.	.	4G/	.	.	.	.	.
=12	=12	=12	=12	=12-	=12-	=12-	=12-
*	*	*	*	*lig	*	*	*
2r	.	4A\	.	1F	Ki-	4c/	-lei-
.	.	4B-\	.	.	.	4B-/	.
!	!	!LO:TX:t=P:problem=kreska pseudotaktowa	!	!	!	!LO:TX:t=P:problem=kreska pseudotaktowa	!
2F\	kӱ-	2c\	.	.	.	2A/	.
!LO:SIC:v:s:t=2G\	!	!	!	!	!	!	!
2F\	-ri-	1C	-lei-	2.G/	.	1c	-ſon
!LO:TX:t=P:problem=kreska pseudotaktowa	!	!	!	!	!	!	!
2E\	-e	.	.	.	.	.	.
*	*	*	*	*Xlig	*	*	*
!	!	!	!	!LO:TX:t=P:problem=kreska pseudotaktowa	!	!	!
.	.	.	.	4G/	-ri-	.	.
=13-	=13-	=13-	=13-	=13	=13	=13-	=13-
!	!	!LO:TX:t=P:problem=kreska pseudotaktowa	!	!	!	!	!
1.F	e-	1c	-ſon	1F	-e	2.A/	kӱ-
!	!	!	!	!	!	!LO:TX:t=P:problem=kreska pseudotaktowa	!
.	.	.	.	.	.	4B-/	.
*	*	*	*	*lig	*	*	*
.	.	2r	.	1C	e-	2c/	.
!	!	!LO:TX:t=P:problem=kreska pseudotaktowa	!	!	!	!	!
2E\	.	2c\	ky-	.	.	2c/	-ri-
=14-	=14-	=14	=14	=14-	=14-	=14-	=14-
1D	.	2c\	-ri-	1F	.	4d\	-e
.	.	.	.	.	.	4e\	.
!	!	!LO:TX:a:t=P:problem=# above	!	!	!	!	!
!	!	!LO:N:acc=#	!	!	!	!	!
!	!	!LO:TX:t=P:problem=kreska pseudotaktowa	!	!	!	!LO:TX:t=P:problem=kreska pseudotaktowa	!
.	.	2Bn\	-e	.	.	2f\	.
*	*	*	*	*Xlig	*	*	*
0C	-ley-	2c\	e-	2E/	-lei-	2g\	e-
!	!	!LO:TX:t=P:problem=kreska pseudotaktowa	!	!	!	!	!
.	.	2A/	.	2F/	.	1f\	-leӱ-
=15-	=15-	=15	=15	=15-	=15-	=15-	=15-
.	.	2G/	.	1G	.	.	.
.	.	2c\	-lei-	.	.	2e\	.
!LO:TX:t=P:problem=kreska pseudotaktowa	!	!	!	!LO:TX:t=P:problem=kreska pseudotaktowa	!	!LO:TX:t=P:problem=kreska pseudotaktowa	!
0FF;	-ſon	0cl	-ſon	0Fl;>	-ſon	0fl	-ſon
!	!	!LO:LB:g=original	!	!LO:LB:g=original	!	!LO:LB:g=original	!
=16||	=16||	=16||-	=16||-	=16||	=16||	=16||	=16||
*	*	*lig	*	*lig	*	*	*
!	!	!LO:TX:t=P:problem=kreska pseudotaktowa	!	!	!	!	!
00r	.	1r	.	1F	C[h]ri-	00r	.
.	.	1C	CHri-	1.c	.	.	.
=17-	=17-	=17-	=17-	=17-	=17-	=17-	=17-
.	.	1.F	.	.	.	.	.
*	*	*	*	*Xlig	*	*	*
.	.	.	.	2d\	-ste	.	.
.	.	.	.	2c\	e-	.	.
!	!	!	!	!LO:TX:t=P:problem=kreska pseudotaktowa	!	!	!
*	*	*Xlig	*	*	*	*	*
!	!	!LO:TX:t=P:problem=kreska pseudotaktowa	!	!	!	!	!
.	.	2G/	-ſte	2B-\	.	.	.
=18-	=18-	=18	=18	=18-	=18-	=18-	=18-
!LO:TX:t=P:problem=kreska pseudotaktowa	!	!	!	!	!	!LO:TX:t=P:problem=kreska pseudotaktowa	!
0r	.	2F/	e-	4A/	.	1r	.
.	.	.	.	4B-\	.	.	.
!	!	!LO:TX:t=P:problem=kreska pseudotaktowa	!	!LO:TX:t=P:problem=kreska pseudotaktowa	!	!	!
.	.	2E/	.	2.c\	.	.	.
*	*	*	*	*	*	*lig	*
.	.	4D/	.	.	.	1F	CHri-
.	.	4E/	.	4B-\	.	.	.
.	.	1F/	.	2A/	.	.	.
=19	=19	=19-	=19-	=19-	=19-	=19-	=19-
*lig	*	*	*	*	*	*	*
1C	Chri-	.	.	1G	.	1c	.
!	!	!LO:TX:t=P:problem=kreska pseudotaktowa	!	!	!	!	!
.	.	2E/	.	.	.	.	.
*	*	*	*	*	*	*Xlig	*
1.F	.	2.F/	.	4A/	.	2c/	-ſte
.	.	.	.	4G/	.	.	.
!	!	!LO:TX:t=P:problem=kreska pseudotaktowa	!	!	!	!LO:TX:t=P:problem=kreska pseudotaktowa	!
.	.	.	.	1F/	.	2d\	e-
.	.	4G/	.	.	.	.	.
*Xlig	*	*	*	*	*	*	*
=20-	=20-	=20-	=20-	=20-	=20-	=20	=20
.	.	2A/	.	.	.	2c/	.
!LO:TX:t=P:problem=kreska pseudotaktowa	!	!LO:TX:t=P:problem=kreska pseudotaktowa	!	!	!	!	!
2G\	-ſte	2G/	.	2B-\	-lei-	2B-/	.
!	!	!	!	!LO:TX:t=P:problem=kreska pseudotaktowa	!	!	!
2F\	e-	4A\	.	1c	-ſon	2A/	.
.	.	4B-\	.	.	.	.	.
2E\	.	1c\	.	.	.	2G/	.
=21-	=21-	=21-	=21-	=21-	=21-	=21-	=21-
4D/	.	.	.	1r	.	2A/	.
4E\	.	.	.	.	.	.	.
!	!	!	!	!	!	!LO:SIC:v:s:t=4F/	!
1F	.	2A\	-lei-	.	.	4G/	.
.	.	.	.	.	.	4F/	.
!	!	!LO:TX:t=P:problem=kreska pseudotaktowa	!	!	!	!	!
*	*	*	*	*lig	*	*	*
.	.	1G,>	-ſon	1G	Chri-	1c	-lei-
!LO:TX:t=P:problem=kreska pseudotaktowa	!	!	!	!	!	!	!
2E\	.	.	.	.	.	.	.
=22	=22	=22	=22	=22-	=22-	=22-	=22-
!	!	!	!	!	!	!LO:TX:t=P:problem=kreska pseudotaktowa	!
1F	-ley-	1r	.	1.c	.	0.A	-ſon
!LO:TX:t=P:problem=kreska pseudotaktowa	!	!	!	!	!	!	!
*	*	*lig	*	*	*	*	*
0FF	-ſon	1C	chri-	.	.	.	.
*	*	*	*	*Xlig	*	*	*
!	!	!	!	!LO:TX:t=P:problem=kreska pseudotaktowa	!	!	!
.	.	.	.	2d\	-ste	.	.
=23-	=23-	=23-	=23-	=23	=23	=23-	=23-
.	.	1.F	.	2.c\	e-	.	.
!	!	!	!	!LO:TX:t=P:problem=kreska pseudotaktowa	!	!	!
.	.	.	.	4B-\	.	.	.
1r	.	.	.	2A/	.	0r	.
*	*	*Xlig	*	*	*	*	*
!	!	!LO:TX:t=P:problem=kreska pseudotaktowa	!	!	!	!	!
.	.	2G/	-ſte	2G/	.	.	.
=24-	=24-	=24	=24	=24-	=24-	=24-	=24-
!LO:TX:t=P:problem=kreska pseudotaktowa	!	!	!	!	!	!	!
0r	.	2F/	e-	4A\	.	.	.
.	.	.	.	4B-\	.	.	.
.	.	2E/	.	1c	.	.	.
.	.	2D/	.	.	.	2r	.
!	!	!	!	!LO:TX:t=P:problem=kreska pseudotaktowa	!	!LO:TX:t=P:problem=kreska pseudotaktowa	!
.	.	1G/	.	2B-\	.	2G/	chri-
!	!	!LO:SIC:v:t=custos F	!	!LO:SIC:v:t=custos A	!	!	!
!	!	!LO:LB:g=original	!	!LO:LB:g=original	!	!	!
=25	=25	=25-	=25-	=25	=25	=25	=25
*lig	*	*	*	*lig	*	*	*
1D	Chri-	.	.	1A	.	1.d	-ſte
!	!	!LO:TX:b:t=P:problem=# below	!	!	!	!	!
!	!	!LO:TX:t=P:problem=kreska pseudotaktowa	!	!	!	!	!
.	.	2F#X/	.	.	.	.	.
1.G	.	2.G/	.	1.B-	.	.	.
!	!	!	!	!	!	!LO:TX:t=P:problem=kreska pseudotaktowa	!
.	.	.	.	.	.	2e\	e-
!	!	!LO:TX:t=P:problem=kreska pseudotaktowa	!	!	!	!	!
.	.	4A/	.	.	.	.	.
*Xlig	*	*	*	*Xlig	*	*	*
=26-	=26-	=26	=26	=26-	=26-	=26	=26
.	.	2B-\	.	.	.	2d\	.
!LO:TX:t=P:problem=kreska pseudotaktowa	!	!LO:TX:t=P:problem=kreska pseudotaktowa	!	!LO:TX:t=P:problem=kreska pseudotaktowa	!	!	!
2A\	-ſte	2c\	.	2A/	.	2c/	.
2G\	e-	2B-\	.	2B-\	.	4d\	.
.	.	.	.	.	.	4e\	.
!	!	!LO:TX:t=P:problem=kreska pseudotaktowa	!	!	!	!	!
2F\	.	2A\	.	2c\	-lei-	1f\	.
=27-	=27-	=27	=27	=27-	=27-	=27-	=27-
1C	.	2G/	.	1c	-ſon	.	.
!	!	!LO:TX:t=P:problem=kreska pseudotaktowa	!	!	!	!LO:TX:t=P:problem=kreska pseudotaktowa	!
.	.	2A/	.	.	.	2e\	.
*lig	*	*	*	*	*	*	*
1BB-	.	1B-	-lei-	1d	e-	2d\	.
*	*	*	*	*	*	*lig	*
.	.	.	.	.	.	1g\	.
=28-	=28-	=28-	=28-	=28-	=28-	=28-	=28-
!	!	!LO:TX:t=P:problem=kreska pseudotaktowa	!	!	!	!	!
1AA	.	1c,>	-ſon	4c\	.	.	.
.	.	.	.	4B-\	.	.	.
!	!	!	!	!LO:TX:t=P:problem=kreska pseudotaktowa	!	!	!
.	.	.	.	2A/	.	1f	.
*Xlig	*	*	*	*	*	*	*
1C	-leӱ-	1r	.	1G	-lei-	.	.
*	*	*	*	*	*	*Xlig	*
!	!	!	!	!	!	!LO:TX:t=P:problem=kreska pseudotaktowa	!
.	.	.	.	.	.	2e\	-lei:-
!	!	!	!	!	!	!LO:SIC:v:t=custos f	!
!	!	!	!	!	!	!LO:LB:g=original	!
=29-	=29-	=29-	=29-	=29-	=29-	=29	=29
*	*	*lig	*	*	*	*	*
2FF/	-ſon	1F	Chri-	0A	-ſon	1f	-ſon
2.F\	e-	.	.	.	.	.	.
*	*	*	*	*	*	*lig	*
.	.	1.c	.	.	.	1c	Chri-
4G\	.	.	.	.	.	.	.
!LO:SIC:v:t=custos A	!	!	!	!	!	!	!
!LO:LB:g=original	!	!	!	!	!	!	!
4A\	.	.	.	.	.	.	.
!LO:TX:t=P:problem=kreska pseudotaktowa	!	!	!	!	!	!	!
4G\	.	.	.	.	.	.	.
*	*	*Xlig	*	*	*	*	*
=30	=30	=30-	=30-	=30-	=30-	=30-	=30-
!	!	!	!	!LO:TX:t=P:problem=kreska pseudotaktowa	!	!	!
4F\	.	.	.	1A	Chri-	1.f	.
4E\	.	.	.	.	.	.	.
!LO:TX:t=P:problem=kreska pseudotaktowa	!	!LO:TX:t=P:problem=kreska pseudotaktowa	!	!	!	!	!
2D/	.	2d\	-ſte	.	.	.	.
2AA/	.	2c\	e-	2A/	-ste	.	.
*	*	*	*	*	*	*Xlig	*
!	!	!LO:TX:t=P:problem=kreska pseudotaktowa	!	!	!	!LO:TX:t=P:problem=kreska pseudotaktowa	!
2GG/	.	2B-\	.	1d\	e-	2g\	-ſte
=31-	=31-	=31-	=31-	=31-	=31-	=31	=31
1.D	.	2.A/	.	.	.	2.f\	e-
!	!	!	!	!LO:TX:t=P::problem=kreska pseudotaktowa&colon;między nutą a kropką	!	!	!
.	.	.	.	2.d\	-lei-	.	.
!	!	!LO:TX:t=P:problem=kreska pseudotaktowa	!	!	!	!	!
.	.	4G/	.	.	.	4e\	.
.	.	2A/	.	.	.	2d\	.
.	.	.	.	4c\	.	.	.
2G\	-leӱ-	1B-\	.	2B-\	.	4c/	.
!	!	!	!	!	!	!LO:TX:t=P:problem=kreska pseudotaktowa	!
.	.	.	.	.	.	4B-/	.
=32-	=32-	=32-	=32-	=32-	=32-	=32	=32
1F	.	.	.	1c	-ſon	2.c/	.
!	!	!LO:TX:t=P:problem=kreska pseudotaktowa	!	!	!	!	!
.	.	2A/	.	.	.	.	.
.	.	.	.	.	.	4d\	.
!LO:TX:t=P:problem=kreska pseudotaktowa	!	!	!	!	!	!	!
*	*	*	*	*lig	*	*	*
1C	-ſon	2G/	.	1C	Chri-	2e\	.
!	!	!LO:TX:t=P:problem=kreska pseudotaktowa	!	!	!	!	!
.	.	2F/	.	.	.	1f\	.
=33	=33	=33	=33	=33-	=33-	=33-	=33-
*lig	*	*	*	*	*	*	*
1C	Chri-	1G	-lei-	1.c	.	.	.
.	.	.	.	.	.	4e\	.
!	!	!	!	!	!	!LO:TX:t=P:problem=kreska pseudotaktowa	!
.	.	.	.	.	.	4d\	.
!	!	!LO:TX:t=P:problem=kreska pseudotaktowa	!	!	!	!	!
1.F	.	1A	-ſon	.	.	4c/	.
.	.	.	.	.	.	4B-/	.
*	*	*	*	*Xlig	*	*	*
!	!	!	!	!LO:TX:t=P:problem=kreska pseudotaktowa	!	!	!
.	.	.	.	2d\	-ste	4A/	.
.	.	.	.	.	.	4G/	.
=34-	=34-	=34-	=34-	=34	=34	=34-	=34-
.	.	1r	.	2c\	e-	2A/	.
*Xlig	*	*	*	*	*	*	*
!LO:TX:t=P:problem=kreska pseudotaktowa	!	!	!	!LO:TX:t=P:problem=kreska pseudotaktowa	!	!LO:TX:t=P:problem=kreska pseudotaktowa	!
2G\	-ſte	.	.	2B-\	.	2B-/	-lei-
*	*	*lig	*	*	*	*	*
2.F\	e-	1c	Chri-	2A/	.	1f	-ſon
.	.	.	.	2G/	.	.	.
4E\	.	.	.	.	.	.	.
=35-	=35-	=35-	=35-	=35-	=35-	=35-	=35-
*	*	*	*	*	*	*lig	*
2.D/	.	1.F	.	4A\	.	1F	Chri-
.	.	.	.	4G\	.	.	.
.	.	.	.	4F\	.	.	.
!LO:TX:t=P:problem=kreska pseudotaktowa	!	!	!	!LO:TX:t=P:problem=kreska pseudotaktowa	!	!	!
4C/	.	.	.	4E\	.	.	.
!	!	!	!	!LO:SIC:v:t=custos D	!	!	!
!	!	!	!	!LO:LB:g=original	!	!	!
4BB-/	.	.	.	2.D/	.	1.B-	.
4AA/	.	.	.	.	.	.	.
*	*	*Xlig	*	*	*	*	*
!LO:TX:t=P:problem=kreska pseudotaktowa	!	!LO:TX:t=P:problem=kreska pseudotaktowa	!	!	!	!	!
2GG/	.	2G/	-ſte	.	.	.	.
!	!	!	!	!LO:TX:t=P:problem=kreska pseudotaktowa	!	!	!
.	.	.	.	4E/	.	.	.
=36	=36	=36	=36	=36	=36	=36-	=36-
2D/	.	2F/	e-	4F/	.	.	.
!	!	!	!	!LO:SIC:v:s:t=4d	!	!	!
.	.	.	.	4C/	.	.	.
*	*	*	*	*	*	*Xlig	*
!	!	!LO:SIC:v:t=custos E	!	!	!	!	!
!	!	!LO:LB:g=original	!	!	!	!	!
!	!	!LO:TX:t=P:problem=kreska pseudotaktowa	!	!	!	!LO:TX:t=P:problem=kreska pseudotaktowa	!
2C/	.	2E/	.	4G/	.	2c/	-ſte
!	!	!	!	!LO:TX:t=P:problem=kreska pseudotaktowa	!	!	!
.	.	.	.	4A/	.	.	.
2.D/	.	4D/	.	2B-\	.	2B-/	e-
.	.	4E/	.	.	.	.	.
.	.	1F/	.	2F/	-lei-	2A/	.
4C/	.	.	.	.	.	.	.
=37-	=37-	=37-	=37-	=37-	=37-	=37-	=37-
2BB-/	.	.	.	2G/	-ſon	1G	.
!LO:TX:t=P:problem=kreska pseudotaktowa	!	!LO:TX:t=P:problem=kreska pseudotaktowa	!	!	!	!	!
2C/	.	2E/	-lei-	2.c\	e-	.	.
!	!	!	!	!	!	!LO:TX:t=P:problem=kreska pseudotaktowa	!
0FF	.	2F/	-ſon	.	.	1F	.
.	.	.	.	4B-\	.	.	.
.	.	2.c\	e-	4A\	.	.	.
!	!	!	!	!LO:TX:t=P:problem=kreska pseudotaktowa	!	!	!
.	.	.	.	4G\	.	.	.
=38-	=38-	=38-	=38-	=38	=38	=38	=38
.	.	.	.	4A\	.	2.f\	.
.	.	4B-\	.	4B-\	.	.	.
!	!	!	!	!LO:TX:t=P:problem=kreska pseudotaktowa	!	!	!
.	.	4A\	.	2c\	.	.	.
!	!	!LO:TX:t=P:problem=kreska pseudotaktowa	!	!	!	!	!
.	.	4G\	.	.	.	4e\	.
0BB-	-ley-	4F/	.	2.B-\	.	4d\	.
.	.	4E/	.	.	.	4c/	.
*	*	*lig	*	*	*	*	*
.	.	1D/	.	.	.	4B-/	.
!	!	!	!	!	!	!LO:TX:t=P:problem=kreska pseudotaktowa	!
.	.	.	.	4c\	.	4A/	.
=39-	=39-	=39-	=39-	=39-	=39-	=39	=39
.	.	.	.	1d	-lei-	4B-/	.
.	.	.	.	.	.	4F/	.
.	.	1B-	.	.	.	2f\	-lei-
!LO:TX:t=P:problem=kreska pseudotaktowa	!	!	!	!LO:TX:t=P:problem=kreska pseudotaktowa	!	!LO:TX:t=P:problem=kreska pseudotaktowa	!
[0FFl;>	-ſon	.	.	[0cl;;	-ſon	[0fl	-ſon
*	*	*Xlig	*	*	*	*	*
.	.	2A/	-lei-	.	.	.	.
=40	=40	=40-	=40-	=40-	=40-	=40-	=40-
!	!	!LO:TX:t=Vertat Kyrie	!	!	!	!	!
!	!	!LO:TX:t=P:problem=kreska pseudotaktowa	!	!	!	!	!
.	.	0Al	-ſon	.	.	.	.
1FF]	.	.	.	1c]	.	1f]	.
!LO:LB:g=original	!	!LO:PB:g=original	!	!LO:PB:g=original	!	!LO:LB:g=original	!
=41||-	=41||-	=41||	=41||	=41||	=41||	=41||	=41||
!LO:TX:t=P:problem=kreska pseudotaktowa	!	!	!	!	!	!	!
1r	.	2.c\	Ky-	0r	.	0r	.
.	.	4c\	-ri-	.	.	.	.
2.F\	Kӱ-	1F	-e	.	.	.	.
4F\	-ri-	.	.	.	.	.	.
=42-	=42-	=42-	=42-	=42-	=42-	=42-	=42-
!	!	!	!	!	!	!LO:TX:t=P:problem=kreska pseudotaktowa	!
1C	-e	2G/	e-	2.c\	Ki-	1r	.
!	!	!LO:TX:t=P:problem=kreska pseudotaktowa	!	!	!	!	!
.	.	2A/	.	.	.	.	.
.	.	.	.	4c\	-ri-	.	.
4D/	e-	1.B-	.	1F	-e	2.f\	Kӱ-
4E\	.	.	.	.	.	.	.
4F\	.	.	.	.	.	.	.
!LO:TX:t=P:problem=kreska pseudotaktowa	!	!	!	!	!	!	!
4D/	.	.	.	.	.	4f\	-ri-
=43	=43	=43-	=43-	=43-	=43-	=43-	=43-
!	!	!	!	!	!	!LO:TX:t=P:problem=kreska pseudotaktowa	!
2E\	.	.	.	2G/	e-	1c	-e
!	!	!	!	!LO:TX:t=P:problem=kreska pseudotaktowa	!	!	!
2F\	.	2A/	.	2A/	.	.	.
2.BB-/	.	2G/	.	1.B-	.	4d\	e-
.	.	.	.	.	.	4e\	.
!	!	!LO:TX:t=P:problem=kreska pseudotaktowa	!	!	!	!	!
.	.	2F/	.	.	.	4f\	.
!	!	!	!	!	!	!LO:TX:t=P:problem=kreska pseudotaktowa	!
4AA/	.	.	.	.	.	4d\	.
=44-	=44-	=44	=44	=44-	=44-	=44-	=44-
2GG/	.	2G/	.	.	.	2e\	.
2FF/	.	2.c\	.	2A/	.	1f	.
*	*	*	*	*lig	*	*	*
*	*	*	*	*col	*	*	*
1C	-ley-	.	.	1G	-lei-	.	.
.	.	8B-\L	.	.	.	.	.
.	.	8A\J	.	.	.	.	.
!	!	!LO:TX:t=P:problem=kreska pseudotaktowa	!	!	!	!LO:TX:t=P:problem=kreska pseudotaktowa	!
.	.	2G/	-lei-	.	.	2e\	-lei-
=45-	=45-	=45	=45	=45-	=45-	=45	=45
!LO:TX:t=P:problem=kreska pseudotaktowa	!	!	!	!	!	!	!
0FF	-ſon	1A	-ſon	2.F/	-ſon	0f	-ſon
*	*	*	*	*Xcol	*	*	*
*	*	*	*	*Xlig	*	*	*
.	.	.	.	4G/	.	.	.
!	!	!	!	!LO:TX:t=P:problem=kreska pseudotaktowa	!	!	!
.	.	2.c\	kӱ-	1A	.	.	.
.	.	4c\	-ri-	.	.	.	.
=46	=46	=46-	=46-	=46	=46	=46-	=46-
!	!	!LO:TX:t=P:problem=kreska pseudotaktowa	!	!	!	!	!
2r	.	1F	-e	1r	.	2.f\	ky-
2F\	kӱ-	.	.	.	.	.	.
!	!	!	!	!	!	!LO:TX:t=P:problem=kreska pseudotaktowa	!
.	.	.	.	.	.	4f\	-ri-
2E\	-ri-	2G/	e-	2r	.	1c	-e
!LO:TX:t=P:problem=kreska pseudotaktowa	!	!	!	!LO:TX:t=P:problem=kreska pseudotaktowa	!	!	!
2F\	-e	2A/	.	2c\	Ki-	.	.
=47	=47	=47-	=47-	=47	=47	=47-	=47-
2D/	e	2B-\	.	2B-\	-ri-	2d\	e-
!	!	!LO:TX:t=P:problem=kreska pseudotaktowa	!	!	!	!	!
4C/	.	2G/	.	2c\	-e	2e\	.
4BB-/	.	.	.	.	.	.	.
!	!	!	!	!	!	!LO:TX:t=P:problem=kreska pseudotaktowa	!
2D/	.	2d\	.	2A/	e-	1f	-lei-
2E\	.	4c\	.	4G/	.	.	.
!	!	!LO:TX:t=P:problem=kreska pseudotaktowa	!	!LO:TX:t=P:problem=kreska pseudotaktowa	!	!	!
.	.	4B-\	.	4F/	.	.	.
=48-	=48-	=48	=48	=48	=48	=48	=48
1.F	.	4A\	.	2.A/	.	1.c	-ſon
.	.	4G/	.	.	.	.	.
.	.	4F/	.	.	.	.	.
.	.	4E/	.	4B-\	.	.	.
.	.	4F/	.	1A	.	.	.
.	.	4G/	.	.	.	.	.
!LO:TX:t=P:problem=kreska pseudotaktowa	!	!LO:TX:t=P:problem=kreska pseudotaktowa	!	!	!	!LO:TX:t=P:problem=kreska pseudotaktowa	!
2F\	lei-	2A\	.	.	.	2f\	ky-
!LO:SIC:v:t=custos C	!	!LO:SIC:v:t=custos c	!	!	!	!	!
!LO:PB:g=original	!	!LO:LB:g=original	!	!	!	!	!
=49	=49	=49-	=49-	=49-	=49-	=49	=49
2C/	.	2c\	-lei-	2G/	.	2e\	-ri-
!	!	!	!	!LO:TX:t=P::problem=kreska pseudotaktowa&colon;między nutą a kropką	!	!	!
2F\	-ſon	2c\	-ſon	2.F/	.	2f\	-e
2BB-/	e	2B-/	kӱ-	.	.	2d\	e-
.	.	.	.	4G/	.	.	.
!	!	!	!	!LO:SIC:v:t=custos A	!	!	!
!	!	!	!	!LO:LB:g=original	!	!	!
!LO:TX:t=P:problem=kreska pseudotaktowa	!	!LO:TX:t=P:problem=kreska pseudotaktowa	!	!LO:TX:t=P:problem=kreska pseudotaktowa	!	!	!
2AA/	.	2c\	-ri-	2A/	.	4c/	.
!	!	!	!	!	!	!LO:TX:t=P:problem=kreska pseudotaktowa	!
.	.	.	.	.	.	4B-/	.
=50	=50	=50	=50	=50	=50	=50	=50
2D\	lei-	2A/	-e	2F/	-lei-	2.d\	.
!	!	!	!	!LO:TX:t=P:problem=kreska pseudotaktowa	!	!	!
2G\	-ſon	4G/	e-	2B-\	-ſon	.	.
!	!	!	!	!	!	!LO:TX:t=P:problem=kreska pseudotaktowa	!
.	.	4F/	.	.	.	4e\	.
!	!	!	!	!	!	!LO:SIC:v:t=custos f	!
!	!	!	!	!	!	!LO:PB:g=original	!
2.F\	Kӱ-	1A	-lei-	1r	.	4f\	.
.	.	.	.	.	.	4c/	.
.	.	.	.	.	.	1f\	-lei-
4F\	-ri-	.	.	.	.	.	.
=51-	=51-	=51-	=51-	=51-	=51-	=51-	=51-
!LO:TX:t=P:problem=kreska pseudotaktowa	!	!LO:TX:t=P:problem=kreska pseudotaktowa	!	!	!	!	!
1C	-e	1G	-ſon	2.c\	Ki-	.	.
!	!	!	!	!	!	!LO:TX:t=P:problem=kreska pseudotaktowa	!
.	.	.	.	.	.	2e\	-ſon
!	!	!	!	!LO:TX:t=P:problem=kreska pseudotaktowa	!	!	!
.	.	.	.	4c\	-ri-	.	.
4D/	e	1r	.	1F	-e	2.f\	ky-
4E\	.	.	.	.	.	.	.
4F\	.	.	.	.	.	.	.
4D/	.	.	.	.	.	4f\	-ri-
=52-	=52-	=52-	=52-	=52-	=52-	=52-	=52-
!	!	!	!	!	!	!LO:TX:t=P:problem=kreska pseudotaktowa	!
2E\	.	2.c\	ky-	2G/	e-	1c	-e
!LO:TX:t=P:problem=kreska pseudotaktowa	!	!	!	!	!	!	!
2F\	.	.	.	2A/	.	.	.
.	.	4c\	-ri-	.	.	.	.
1D	.	1F	-e	4B-\	.	4d\	e-
.	.	.	.	8A\L	.	4e\	.
.	.	.	.	8G\J	.	.	.
.	.	.	.	4A\	.	4f\	.
!	!	!	!	!LO:TX:t=P:problem=kreska pseudotaktowa	!	!	!
.	.	.	.	4F\	.	4d\	.
=53-	=53-	=53-	=53-	=53	=53	=53-	=53-
2C/	.	2G/	e-	1c	.	2e\	.
!	!	!LO:TX:t=P:problem=kreska pseudotaktowa	!	!	!	!LO:TX:t=P:problem=kreska pseudotaktowa	!
!LO:SIC:v:s:t=4C/	!	!	!	!	!	!	!
4BB-/	.	2A\	.	.	.	2f\	.
4AA/	.	.	.	.	.	.	.
2GG/	.	2.B-\	.	2.d\	.	2g\	.
2FF/	.	.	.	.	.	2c/	.
!	!	!	!	!LO:TX:t=P:problem=kreska pseudotaktowa	!	!	!
.	.	4A\	.	4c\	.	.	.
=54-	=54-	=54-	=54-	=54	=54	=54-	=54-
*	*	*	*	*	*	*lig	*
1BB-	.	2G/	.	2B-/	.	1d	.
!	!	!	!	!LO:TX:t=P:problem=kreska pseudotaktowa	!	!	!
.	.	1F	.	2A/	.	.	.
0C	lei-	.	.	2G/	.	1.c	.
.	.	2E/	-ley-	4A\	.	.	.
.	.	.	.	4B-\	.	.	.
*	*	*	*	*	*	*Xlig	*
=55-	=55-	=55-	=55-	=55-	=55-	=55-	=55-
.	.	0.Fl	-ſon	1c	-lei-	.	.
!	!	!	!	!	!	!LO:TX:t=P:problem=kreska pseudotaktowa	!
.	.	.	.	.	.	2c/	-lei-
0FFl	-ſon	.	.	0Al;;	-ſon	0cl	-ſon
==	=-	==	==	==	==	=-	=-
*-	*-	*-	*-	*-	*-	*-	*-
!!!system-decoration: [(g1)]
!!!RDF**kern: > = above
!!!RDF**kern: < = below
!!!RDF**kern: l = terminal long
!!!AIN: 1 alto 1 bass 1 soprn 1 tenor
!!!ENC: Arkadiusz Malec
!!!END: 2022-01-12
!!!EED: Jędrzej Mróz
!!!EST: 2022-01-24
